Adwaita++-Light/panel/16/weather-snow.svg

<svg height="16" width="16" xmlns="http://www.w3.org/2000/svg">
  <path d="m8 .004c-2.0711 0-3.8347 1.2679-4.5938 3.0625-1.9278.2866-3.4062 1.9299-3.4062 3.9375 0 2.209 1.7909 4 4 4h8.5c1.933 0 3.5-1.567 3.5-3.5 0-1.7965-1.351-3.2687-3.094-3.4687-.454-2.2934-2.479-4.0313-4.906-4.0313zm-4 11.996a1 1 0 0 0 -1 1 1 1 0 0 0 1 1 1 1 0 0 0 1-1 1 1 0 0 0 -1-1zm4 0a1 1 0 0 0 -1 1 1 1 0 0 0 1 1 1 1 0 0 0 1-1 1 1 0 0 0 -1-1zm4 0a1 1 0 0 0 -1 1 1 1 0 0 0 1 1 1 1 0 0 0 1-1 1 1 0 0 0 -1-1zm-10 2a1 1 0 0 0 -1 1 1 1 0 0 0 1 1 1 1 0 0 0 1-1 1 1 0 0 0 -1-1zm4 0a1 1 0 0 0 -1 1 1 1 0 0 0 1 1 1 1 0 0 0 1-1 1 1 0 0 0 -1-1zm4 0a1 1 0 0 0 -1 1 1 1 0 0 0 1 1 1 1 0 0 0 1-1 1 1 0 0 0 -1-1zm4 0a1 1 0 0 0 -1 1 1 1 0 0 0 1 1 1 1 0 0 0 1-1 1 1 0 0 0 -1-1z" fill="#444"/>
</svg>

<svg xmlns="http://www.w3.org/2000/svg" width="16" height="16" version="1.1">
 <defs>
  <style id="current-color-scheme" type="text/css">
   .ColorScheme-Text { color:#444444; } .ColorScheme-Highlight { color:#4285f4; }
  </style>
 </defs>
 <path style="fill:currentColor" class="ColorScheme-Text" d="M 8,0.004 C 5.9289,0.004 4.1653,1.2719 3.4062,3.0665 1.4784,3.3531 0,4.9964 0,7.004 0,9.213 1.7909,11.004 4,11.004 H 12.5 C 14.433,11.004 16,9.437 16,7.504 16,5.7075 14.649,4.2353 12.906,4.0353 12.452,1.7419 10.427,0.004 8,0.004 Z M 4,12 A 1,1 0 0 0 3,13 1,1 0 0 0 4,14 1,1 0 0 0 5,13 1,1 0 0 0 4,12 Z M 8,12 A 1,1 0 0 0 7,13 1,1 0 0 0 8,14 1,1 0 0 0 9,13 1,1 0 0 0 8,12 Z M 12,12 A 1,1 0 0 0 11,13 1,1 0 0 0 12,14 1,1 0 0 0 13,13 1,1 0 0 0 12,12 Z M 2,14 A 1,1 0 0 0 1,15 1,1 0 0 0 2,16 1,1 0 0 0 3,15 1,1 0 0 0 2,14 Z M 6,14 A 1,1 0 0 0 5,15 1,1 0 0 0 6,16 1,1 0 0 0 7,15 1,1 0 0 0 6,14 Z M 10,14 A 1,1 0 0 0 9,15 1,1 0 0 0 10,16 1,1 0 0 0 11,15 1,1 0 0 0 10,14 Z M 14,14 A 1,1 0 0 0 13,15 1,1 0 0 0 14,16 1,1 0 0 0 15,15 1,1 0 0 0 14,14 Z"/>
</svg>
